; HEADER_BLOCK_START
; generated by OrcaSlicer 2.2.0 on 2025-03-02 at 23:26:02
; total layer number: 240
; filament_density: 1.04
; filament_diameter: 1.75
; max_z_height: 48.00
; HEADER_BLOCK_END

; THUMBNAIL_BLOCK_START

;
; THUMBNAIL_BLOCK_END

; below is the first 50 lines of gcodes generated by OrcaSlicer

; external perimeters extrusion width = 0.40mm
; perimeters extrusion width = 0.40mm
; infill extrusion width = 0.45mm
; solid infill extrusion width = 0.40mm
; top infill extrusion width = 0.40mm
; first layer extrusion width = 0.50mm

; EXECUTABLE_BLOCK_START
EXCLUDE_OBJECT_DEFINE NAME=3dbenchy.stl_id_0_copy_0 CENTER=150,150 POLYGON=[[120,140.816],[120.002,140.755],[120.007,140.699],[120.012,140.646],[120.014,140.63],[120.02,140.583],[120.028,140.525],[120.046,140.436],[120.058,140.379],[120.074,140.322],[120.081,140.296],[120.097,140.239],[120.126,140.155],[120.14,140.118],[120.162,140.064],[120.169,140.047],[120.186,140.01],[120.209,139.958],[120.23,139.916],[120.264,139.854],[120.278,139.827],[120.291,139.806],[120.34,139.727],[120.357,139.7],[120.371,139.679],[120.405,139.631],[120.44,139.584],[120.484,139.531],[120.508,139.501],[120.539,139.466],[120.578,139.423],[120.592,139.408],[120.6,139.4],[120.641,139.359],[120.661,139.34],[120.704,139.3],[120.737,139.271],[120.783,139.234],[120.793,139.225],[120.828,139.197],[120.887,139.154],[120.935,139.121],[120.979,139.092],[121.044,139.052],[121.071,139.036],[121.124,139.008],[121.148,138.995],[121.175,138.981],[121.197,138.97],[121.253,138.944],[121.312,138.919],[121.361,138.899],[121.417,138.879],[121.429,138.875],[121.472,138.861],[121.485,138.857],[121.541,138.84],[121.548,138.838],[121.584,138.828],[121.597,138.825],[121.625,138.818],[121.64,138.814],[121.71,138.799],[121.739,138.794],[121.769,138.789],[121.798,138.784],[149.812,134.886],[150.055,134.853],[150.299,134.821],[150.543,134.791],[150.882,134.752],[151.105,134.728],[151.35,134.702],[151.596,134.678],[151.842,134.656],[152.087,134.635],[152.253,134.622],[152.333,134.616],[152.523,134.602],[152.579,134.598],[152.826,134.581],[152.987,134.571],[153.071,134.566],[153.232,134.557],[153.489,134.544],[153.597,134.539],[153.619,134.538],[153.755,134.532],[153.906,134.526],[154.05,134.521],[154.167,134.517],[154.233,134.515],[154.342,134.512],[154.46,134.509],[154.548,134.507],[154.689,134.504],[154.881,134.501],[155.062,134.499],[155.18,134.498],[155.578,134.498],[155.934,134.5],[156.369,134.508],[156.45,134.51],[156.805,134.52],[156.912,134.524],[157.24,134.537],[157.677,134.558],[158.009,134.578],[158.092,134.583],[158.202,134.59],[158.375,134.602],[158.495,134.611],[158.641,134.622],[158.728,134.629],[158.909,134.644],[159.04,134.655],[159.832,134.78],[159.841,134.782],[160.269,134.888],[160.377,134.915],[160.595,134.97],[160.737,135.007],[160.813,135.027],[160.967,135.068],[161.248,135.145],[161.424,135.195],[161.68,135.27],[161.896,135.334],[162.111,135.4],[162.332,135.47],[162.558,135.543],[162.752,135.607],[163.008,135.694],[163.178,135.753],[163.232,135.772],[163.4,135.832],[163.601,135.905],[163.822,135.987],[164.033,136.067],[164.233,136.145],[164.344,136.188],[164.443,136.228],[164.453,136.232],[164.662,136.316],[164.871,136.402],[164.927,136.425],[165.134,136.513],[165.341,136.603],[165.547,136.693],[165.957,136.879],[166.16,136.974],[166.363,137.07],[166.565,137.168],[166.766,137.267],[166.967,137.367],[167.166,137.469],[167.366,137.572],[167.563,137.677],[167.762,137.783],[167.957,137.89],[168.153,137.999],[168.348,138.11],[168.543,138.221],[168.737,138.334],[168.93,138.449],[169.123,138.565],[169.314,138.683],[169.505,138.801],[169.696,138.922],[169.885,139.043],[170.075,139.167],[170.262,139.291],[170.451,139.417],[170.637,139.544],[170.824,139.673],[171.008,139.803],[171.193,139.934],[171.376,140.067],[171.56,140.201],[171.742,140.337],[171.923,140.474],[172.104,140.612],[172.284,140.752],[172.463,140.893],[172.642,141.036],[172.82,141.18],[172.998,141.325],[173.173,141.472],[173.523,141.77],[173.697,141.921],[173.87,142.074],[174.042,142.228],[174.214,142.384],[174.328,142.489],[174.498,142.645],[174.665,142.803],[174.832,142.962],[174.996,143.122],[175.161,143.283],[175.325,143.445],[175.486,143.609],[175.647,143.773],[175.807,143.939],[175.966,144.106],[176.124,144.274],[176.282,144.443],[176.438,144.614],[176.592,144.785],[176.745,144.958],[176.898,145.132],[177.05,145.306],[177.201,145.483],[177.349,145.66],[177.498,145.838],[177.645,146.017],[177.791,146.198],[177.936,146.38],[178.081,146.563],[178.223,146.747],[178.364,146.932],[178.505,147.118],[178.645,147.305],[178.784,147.493],[178.921,147.683],[179.056,147.874],[179.192,148.065],[179.326,148.258],[179.458,148.452],[179.589,148.647],[179.618,148.692],[179.651,148.745],[179.682,148.798],[179.713,148.852],[179.742,148.907],[179.769,148.962],[179.819,149.076],[179.834,149.117],[179.856,149.175],[179.876,149.233],[179.895,149.292],[179.912,149.351],[179.929,149.413],[179.943,149.47],[179.954,149.53],[179.966,149.593],[179.975,149.652],[179.984,149.713],[179.991,149.774],[179.995,149.836],[179.998,149.905],[180,149.966],[180,150.027],[179.999,150.088],[179.996,150.149],[179.992,150.209],[179.986,150.27],[179.977,150.331],[179.968,150.391],[179.958,150.449],[179.945,150.512],[179.932,150.569],[179.916,150.632],[179.901,150.686],[179.883,150.745],[179.863,150.803],[179.842,150.861],[179.82,150.918],[179.797,150.974],[179.771,151.03],[179.744,151.086],[179.716,151.14],[179.686,151.194],[179.655,151.248],[179.623,151.301],[179.589,151.353],[179.472,151.527],[179.339,151.721],[179.206,151.914],[179.071,152.106],[178.936,152.297],[178.797,152.487],[178.659,152.676],[178.52,152.864],[178.38,153.05],[178.237,153.236],[178.095,153.42],[177.951,153.604],[177.659,153.968],[177.51,154.148],[177.361,154.328],[177.21,154.506],[177.06,154.683],[176.907,154.86],[176.752,155.035],[176.597,155.209],[176.482,155.337],[176.326,155.509],[176.167,155.68],[176.008,155.85],[175.848,156.018],[175.688,156.186],[175.526,156.352],[175.2,156.68],[175.034,156.841],[174.869,157.002],[174.703,157.161],[174.535,157.319],[174.367,157.475],[174.199,157.63],[174.028,157.784],[173.857,157.937],[173.686,158.089],[173.512,158.239],[173.338,158.388],[173.164,158.536],[172.987,158.682],[172.811,158.827],[172.632,158.971],[172.454,159.114],[172.275,159.256],[172.093,159.396],[171.911,159.535],[171.728,159.673],[171.544,159.81],[171.359,159.945],[171.173,160.08],[170.799,160.344],[170.611,160.474],[170.421,160.603],[170.23,160.731],[170.039,160.857],[169.846,160.982],[169.653,161.106],[169.458,161.228],[169.263,161.349],[169.067,161.469],[168.869,161.587],[168.672,161.704],[168.472,161.819],[168.272,161.934],[168.072,162.046],[167.87,162.158],[167.595,162.307],[167.395,162.412],[167.196,162.516],[166.996,162.618],[166.796,162.719],[166.595,162.818],[166.392,162.916],[166.19,163.012],[165.987,163.107],[165.783,163.2],[165.579,163.292],[165.374,163.383],[165.169,163.472],[164.963,163.559],[164.756,163.645],[164.666,163.682],[164.549,163.73],[164.341,163.813],[164.122,163.898],[164.003,163.944],[163.704,164.057],[163.493,164.134],[163.293,164.206],[163.071,164.284],[162.884,164.348],[162.869,164.353],[162.656,164.424],[162.443,164.494],[162.207,164.57],[162.005,164.632],[161.979,164.64],[161.751,164.709],[161.523,164.776],[161.295,164.841],[161.142,164.884],[161.065,164.905],[160.924,164.943],[160.707,165.001],[160.606,165.027],[160.488,165.057],[160.269,165.112],[159.844,165.218],[159.316,165.319],[159.306,165.32],[159.05,165.344],[159.003,165.348],[158.81,165.364],[158.725,165.371],[158.561,165.384],[158.481,165.39],[158.134,165.414],[157.688,165.441],[157.649,165.443],[157.264,165.462],[157.126,165.468],[156.778,165.481],[156.564,165.487],[156.344,165.493],[155.907,165.5],[155.522,165.502],[155.177,165.502],[154.877,165.499],[154.821,165.498],[154.599,165.494],[154.457,165.491],[154.338,165.488],[154.166,165.483],[154.076,165.48],[153.93,165.475],[153.752,165.468],[153.728,165.467],[153.57,165.46],[153.463,165.455],[153.332,165.448],[153.133,165.437],[152.889,165.423],[152.644,165.407],[152.629,165.406],[152.342,165.385],[152.096,165.366],[151.849,165.345],[151.667,165.328],[151.603,165.322],[151.423,165.305],[151.179,165.28],[151.111,165.273],[150.935,165.254],[150.619,165.218],[150.373,165.188],[150.204,165.166],[149.882,165.124],[121.828,161.22],[121.792,161.215],[121.743,161.207],[121.686,161.196],[121.653,161.189],[121.597,161.175],[121.584,161.172],[121.548,161.162],[121.536,161.159],[121.48,161.142],[121.429,161.125],[121.417,161.121],[121.361,161.101],[121.312,161.081],[121.253,161.056],[121.197,161.03],[121.155,161.009],[121.105,160.982],[121.086,160.972],[121.044,160.948],[120.993,160.917],[120.979,160.908],[120.944,160.885],[120.935,160.879],[120.887,160.846],[120.847,160.817],[120.84,160.811],[120.793,160.775],[120.756,160.744],[120.749,160.738],[120.704,160.7],[120.661,160.66],[120.64,160.64],[120.592,160.592],[120.557,160.555],[120.539,160.534],[120.519,160.511],[120.48,160.466],[120.444,160.42],[120.431,160.402],[120.41,160.374],[120.407,160.37],[120.373,160.322],[120.357,160.3],[120.342,160.278],[120.308,160.224],[120.278,160.173],[120.25,160.122],[120.23,160.084],[120.218,160.06],[120.195,160.012],[120.169,159.954],[120.148,159.903],[120.127,159.849],[120.109,159.793],[120.107,159.79],[120.09,159.738],[120.075,159.682],[120.06,159.625],[120.046,159.564],[120.035,159.507],[120.026,159.454],[120.025,159.448],[120.016,159.396],[120.012,159.353],[120.008,159.325],[120.002,159.245],[120,159.208],[120,159.179],[120,140.816]]
M73 P0 R45
;TYPE:Custom
M190 S105
M109 S260
PRINT_START EXTRUDER=260 BED=105
; You can use following code instead if your PRINT_START macro support Chamber and print area bedmesh
; PRINT_START EXTRUDER=260 BED=105 Chamber=0 PRINT_MIN=122.128,139.902 PRINT_MAX=165.118,160.097
G90
G21
M83 ; use relative distances for extrusion
; Filament gcode
M106 S0
;LAYER_CHANGE
;Z:0.2
;HEIGHT:0.2
;BEFORE_LAYER_CHANGE
;0.2
G92 E0

G1 E-.8 F1800
;AFTER_LAYER_CHANGE
;0.2
;_SET_FAN_SPEED_CHANGING_LAYER
SET_VELOCITY_LIMIT ACCEL=500 ACCEL_TO_DECEL=250
SET_VELOCITY_LIMIT SQUARE_CORNER_VELOCITY=9
; printing object 3dbenchy.stl id:0 copy 0
EXCLUDE_OBJECT_START NAME=3dbenchy.stl_id_0_copy_0
G1 Z.6 F21000
G1 X154.522 Y156.18
G1 Z.6
G1 Z.2
G1 E.8 F1800
;TYPE:Inner wall
;WIDTH:0.499999
G1 F3000
G1 X154.808 Y155.917 E.01368
G1 X155.124 Y155.487 E.0188
G1 X155.383 Y154.991 E.01968
G1 X156.121 Y153.088 E.07183
G1 X156.188 Y153.271 E.00685
G1 X156.448 Y153.7 E.01766
G1 X156.752 Y153.989 E.01478
G1 X157.125 Y154.164 E.01447

; below is the last 50 lines of gcode generated by OrcaSlicer

G1 X142.721 Y149.917 E.021
G1 X142.788 Y149.421 E.01752
;WIDTH:0.495472
G1 X142.986 Y148.9 E.01941
;WIDTH:0.492266
G1 X143.364 Y148.346 E.02321
;WIDTH:0.507772
G1 X143.88 Y147.92 E.02392
G1 X144.262 Y147.725 E.01535
;WIDTH:0.49753
G1 X144.787 Y147.577 E.01912
G1 X145.056 Y147.55 E.00945
;WIDTH:0.484794
G1 X145.583 Y147.581 E.01796
;WIDTH:0.4962
G1 X146.159 Y147.752 E.02097
;WIDTH:0.501526
G1 X146.61 Y148.011 E.01837
G1 X146.837 Y148.198 E.01039
;WIDTH:0.489074
G1 X147.19 Y148.596 E.01827
;WIDTH:0.492636
G1 X147.453 Y149.085 E.01921
;WIDTH:0.506118
G1 X147.592 Y149.588 E.01863
G1 X147.626 Y149.991 E.01442
;WIDTH:0.49511
G1 X147.569 Y150.534 E.01902
G1 X147.495 Y150.796 E.00947
;WIDTH:0.48455
G1 X147.273 Y151.272 E.01788
G1 X146.946 Y151.698 E.01825
;WIDTH:0.486292
G1 X146.544 Y152.037 E.01796
;WIDTH:0.496682
G1 X146.239 Y152.194 E.01199
; stop printing object 3dbenchy.stl id:0 copy 0
G1 E-.57312 F1800
;WIPE_START
G1 F7933.674
G1 X146.025 Y152.304 E-.05454
G1 X145.539 Y152.425 E-.11354
G1 X145.281 Y152.444 E-.0588
;WIPE_END
EXCLUDE_OBJECT_END NAME=3dbenchy.stl_id_0_copy_0
M106 S0
;TYPE:Custom
; filament end gcode 
PRINT_END
M73 P100 R0
; EXECUTABLE_BLOCK_END

; below is the metadata and config

; filament used [mm] = 3701.23
; filament used [cm3] = 8.90
; filament used [g] = 9.26
; filament cost = 0.19
; total filament used [g] = 9.26
; total filament cost = 0.19
; total layers count = 240
; estimated printing time (normal mode) = 45m 43s

; CONFIG_BLOCK_START
; accel_to_decel_enable = 1
; accel_to_decel_factor = 50%
; activate_air_filtration = 0
; activate_chamber_temp_control = 0
; adaptive_bed_mesh_margin = 0
; adaptive_pressure_advance = 0
; adaptive_pressure_advance_bridges = 0
; adaptive_pressure_advance_model = "0,0,0\n0,0,0"
; adaptive_pressure_advance_overhangs = 0
; additional_cooling_fan_speed = 0
; alternate_extra_wall = 0
; auxiliary_fan = 0
; bbl_calib_mark_logo = 1
; bbl_use_printhost = 0
; bed_custom_model = 
; bed_custom_texture = 
; bed_exclude_area = 0x0
; bed_mesh_max = 99999,99999
; bed_mesh_min = -99999,-99999
; bed_mesh_probe_distance = 50,50
; before_layer_change_gcode = ;BEFORE_LAYER_CHANGE\n;[layer_z]\nG92 E0\n
; best_object_pos = 0.5,0.5
; bottom_shell_layers = 3
; bottom_shell_thickness = 0
; bottom_solid_infill_flow_ratio = 1
; bottom_surface_pattern = monotonic
; bridge_acceleration = 50%
; bridge_angle = 0
; bridge_density = 100%
; bridge_flow = 0.95
; bridge_no_support = 0
; bridge_speed = 25
; brim_ears_detection_length = 1
; brim_ears_max_angle = 125
; brim_object_gap = 0.1
; brim_type = auto_brim
; brim_width = 5
; chamber_temperature = 0
; change_extrusion_role_gcode = 
; change_filament_gcode = 
; close_fan_the_first_x_layers = 3
; complete_print_exhaust_fan_speed = 80
; cool_plate_temp = 105
; cool_plate_temp_initial_layer = 105
; cooling_tube_length = 5
; cooling_tube_retraction = 91.5
; counterbore_hole_bridging = none
; curr_bed_type = High Temp Plate
; default_acceleration = 5000
; default_filament_colour = ""
; default_filament_profile = "Voron Generic ABS"
; default_jerk = 9
; default_print_profile = 0.20mm Standard @Voron
; deretraction_speed = 30
; detect_narrow_internal_solid_infill = 1
; detect_overhang_wall = 1
; detect_thin_wall = 0
; disable_m73 = 0
; dont_filter_internal_bridges = disabled
; dont_slow_down_outer_wall = 0
; draft_shield = disabled
; during_print_exhaust_fan_speed = 60
; elefant_foot_compensation = 0
; elefant_foot_compensation_layers = 1
; emit_machine_limits_to_gcode = 1
; enable_arc_fitting = 0
; enable_filament_ramming = 1
; enable_long_retraction_when_cut = 0
; enable_overhang_bridge_fan = 1
; enable_overhang_speed = 1
; enable_pressure_advance = 0
; enable_prime_tower = 0
; enable_support = 0
; enforce_support_layers = 0
; eng_plate_temp = 105
; eng_plate_temp_initial_layer = 105
; ensure_vertical_shell_thickness = ensure_all
; exclude_object = 1
; extra_loading_move = -2
; extra_perimeters_on_overhangs = 0
; extruder_clearance_height_to_lid = 140
; extruder_clearance_height_to_rod = 36
; extruder_clearance_radius = 65
; extruder_colour = #26A69A
; extruder_offset = 0x0
; fan_cooling_layer_time = 30
; fan_kickstart = 0
; fan_max_speed = 35
; fan_min_speed = 35
; fan_speedup_overhangs = 1
; fan_speedup_time = 0
; filament_colour = #26A69A
; filament_cooling_final_speed = 3.4
; filament_cooling_initial_speed = 2.2
; filament_cooling_moves = 4
; filament_cost = 20
; filament_density = 1.04
; filament_diameter = 1.75
; filament_end_gcode = "; filament end gcode \n"
; filament_flow_ratio = 0.926
; filament_ids = GFB99
; filament_is_support = 0
; filament_loading_speed = 28
; filament_loading_speed_start = 3
; filament_max_volumetric_speed = 12
; filament_minimal_purge_on_wipe_tower = 15
; filament_multitool_ramming = 0
; filament_multitool_ramming_flow = 10
; filament_multitool_ramming_volume = 10
; filament_notes = ""
; filament_ramming_parameters = "120 100 6.6 6.8 7.2 7.6 7.9 8.2 8.7 9.4 9.9 10.0| 0.05 6.6 0.45 6.8 0.95 7.8 1.45 8.3 1.95 9.7 2.45 10 2.95 7.6 3.45 7.6 3.95 7.6 4.45 7.6 4.95 7.6"
; filament_settings_id = "Voron Generic ABS"
; filament_shrink = 100%
; filament_shrinkage_compensation_z = 100%
; filament_soluble = 0
; filament_stamping_distance = 0
; filament_stamping_loading_speed = 0
; filament_start_gcode = "; Filament gcode\n"
; filament_toolchange_delay = 0
